X:2
T:Albada (la Virgen de Pineta)
R:aire
C:trad. de Bielsa
N:Era cantada por los mozos en las rondas, al alba, y a son de gaita. Las letras son de tipo amoroso, picaresco y religioso.
A:Pirineo central.Aragn
O:Bielsa (Huesca). Espaa.
Z:L. M. Escalona
M:3/4
L:1/4
K:C
e2eggg|f2eggf|eag2>a|gfeag2|
e2eggg|f2eggf|edc4|
e2eggg|f2eggf|edc4
